X:1
T:Sunshine
T:Sunshine
T:Charles Austin Miles
T:Charles Austin Miles, 1908
T:Public Domain Courtesy of the Cyber Hymnal™
T:Public Domain Courtesy of the Cyber Hymnal™
C:Charles Austin Miles
Z:Public Domain
Z:Courtesy of the Cyber Hymnal™
%%score ( 1 2 ) ( 3 4 )
L:1/8
Q:1/4=95
M:4/4
K:G
V:1 treble 
V:2 treble 
V:3 bass 
V:4 bass 
V:1
 [B,D] | [B,D][B,D] [DG]>[FA] [GB]3 [=FB] | [Ec][Ec] [EG]>[EA] [DB]3 [GB] | %3
w: 1.~The|sun- shine I have found Will|fill each day with joy, And|
w: 2.~Look|up and praise the Lord! The|flow- ers need the rain That|
w: 3.~But|for the child of God, There|al- ways is a ray That|
w: 4.~It|is the light that shines, When|Je- sus speaks to me And|
 [GB][FA][^E^G][FA] [Fd]2 [FA]2 | [GB]6 z [B,D] | [B,D][B,D] [DG]>[FA] [GB]3 [=FB] | %6
w: ev- ery mo- ment sweet- ly|bless; The|rays that gent- ly fall Up-|
w: falls up- on them day by|day; Just|as our thirs- ty souls Would|
w: strug- gles thro’ the clouds a-|bove; That|shines a- cross his path And|
w: tells me I am saved by|grace; The|sun- shine I have found Is|
 [Ec][Ec] [EG]>[EA] [^DB]3 [DB] | [EA][EA][GA][GA] | [FA][FA][GB][G^c] | [Fd]6 ||"^Refrain" [GB]2 | %11
w: on my dai- ly path Are|giv- en by the|Sun of Right- eous-|ness.||
w: seek the cool- ing springs If|we were walk- ing|in a des- ert|way.||
w: keeps his wav- ering faith To|rest se- cure- ly|in a Fa- ther’s|love.||
w: free to all who seek, The|sun- shine of my|bless- èd Sav- ior’s|face.||
 [Gd]>[Gd] [Ge][Gd] [GB]3 G | [EA]>[EG] [EG][CE] [CE] [B,D]2 [B,D] | %13
w: ||
w: ||
w: ||
w: ||
 [DG]>[DG] [DG][DA] [GB][FA][DG][GB] | [FA]2 [Fd]2 [Fd]3 [GB] | [Gd]>[Gd] [Ge][Gd] [GB]3 G | %16
w: |||
w: |||
w: |||
w: |||
 [EA]>[EA] [EG][CE] [CE] [B,D]2 [B,D] | (3[DG][DG][DG] [DG][FA] [GB][Gd] [Gd]>[Ac] | %18
w: ||
w: ||
w: ||
w: ||
 [GB]2 [FA]2 [DG]3 |] %19
w: |
w: |
w: |
w: |
V:2
 x | x8 | x8 | x8 | x8 | x8 | x8 | x4 | x4 | x6 || x2 | x7 G | x8 | x8 | x8 | x7 G | x8 | x8 | %18
 x7 |] %19
V:3
 G, | G,G, [G,B,]>[G,C] [G,D]3 [G,D] | [C,C][C,G,] [C,C]>[C,C] [G,B,]3 [G,D] | %3
w: ~|~ ~ ~ ~ ~ ~|~ ~ ~ ~ ~ ~|
 [D,D][D,D][D,D][D,D] [D,A,]2 [D,D]2 | [G,B,]6 z G, | G,G, [G,B,]>[G,C] [G,D]3 [G,D] | %6
w: ~ ~ ~ ~ ~ ~|~ ~|~ ~ ~ ~ ~ ~|
 [C,C][C,G,] [C,G,]>[C,E,] [B,,F,]3 [B,,F,] | [C,A,][C,A,][^C,A,][C,A,] | [D,A,][D,D][G,D][E,A,] | %9
w: ~ ~ ~ ~ ~ ~|~ ~ ~ ~|~ ~ ~ ~|
 [D,A,]6 || G,2 | [G,B,]>[G,B,] [G,C][G,B,] [G,D]3 [G,B,] | [C,C]>[C,C] [C,C][E,G,] G, G,2 G, | %13
w: ~|So|if the sky is dark, And|if the day is drea- ry, The|
 [G,B,]>[G,B,] [G,B,][G,C] [G,D][G,C][G,B,][G,D] | [D,D]2 [D,D]2 [D,D]3 [G,D] | %15
w: sun is shin- ing some- where, This I|know, I know; And|
 [G,B,]>[G,B,] [G,C][G,B,] [G,D]3 [G,B,] | [C,C]>[C,C] [C,C][E,G,] G, G,2 G, | %17
w: so to keep my heart From|ev- er grow- ing wea- ry, I’ll|
 (3[G,B,][G,B,][G,B,] [G,B,][D,D] [G,D][G,B,] [G,B,]>[C,E] | [D,D]2 [D,C]2 [G,B,]3 |] %19
w: car- ry my sun- shine with me Ev- ery-|where I go.|
V:4
 G, | G,G, x6 | x8 | x8 | x7 G, | G,G, x6 | x8 | x4 | x4 | x6 || G,2 | x8 | x4 G, G,2 G, | x8 | %14
 x8 | x8 | x4 G, G,2 G, | x8 | x7 |] %19

